images/mastercard-logo.svg

<svg width="30" height="20" viewBox="0 0 30 20" fill="none" xmlns="http://www.w3.org/2000/svg">
<rect x="0.725586" width="28.726" height="19.3348" rx="4" fill="black"/>
<g opacity="0.01">
<rect x="3.50879" y="1.93359" width="23.1663" height="15.4678" fill="white"/>
</g>
<rect x="12.0361" y="4.62817" width="6.11025" height="10.0783" fill="#F26122"/>
<path d="M12.6944 9.66763C12.6843 7.70607 13.5668 5.84843 15.0882 4.6285C12.4851 2.56167 8.74573 2.86179 6.49873 5.31791C4.25173 7.77402 4.25173 11.5612 6.49873 14.0173C8.74573 16.4735 12.4851 16.7736 15.0882 14.7068C13.5668 13.4868 12.6843 11.6292 12.6944 9.66763Z" fill="#EA1D25"/>
<path fill-rule="evenodd" clip-rule="evenodd" d="M24.7476 13.4317V13.6371H24.7117V13.4317H24.6279V13.3894H24.8374V13.4317H24.7476ZM25.1549 13.3894V13.6371H25.113V13.4498L25.0471 13.613H24.9993L24.9274 13.4498V13.6371H24.8855V13.3894H24.9454L25.0232 13.5646L25.095 13.3894H25.1549Z" fill="#F69E1E"/>
<path d="M25.3584 9.66736C25.3568 12.1201 23.9693 14.3569 21.7843 15.429C19.5994 16.5012 17 16.2206 15.0889 14.7065C17.8418 12.518 18.3185 8.49174 16.1541 5.70977C15.8439 5.30692 15.4861 4.94374 15.0889 4.62823C17 3.11407 19.5994 2.83356 21.7843 3.9057C23.9693 4.97783 25.3568 7.21465 25.3584 9.66736Z" fill="#F69E1E"/>
</svg>

<svg width="30" height="20" fill="none" xmlns="http://www.w3.org/2000/svg"><rect x=".726" width="28.726" height="19.335" rx="4" fill="#000"/><path fill="#fff" d="M3.509 1.934h23.166v15.468H3.509z" opacity=".01"/><path fill="#F26122" d="M12.036 4.628h6.11v10.078h-6.11z"/><path d="M12.694 9.668a6.416 6.416 0 012.394-5.04 6.306 6.306 0 00-8.59.69 6.456 6.456 0 000 8.7 6.306 6.306 0 008.59.689 6.416 6.416 0 01-2.394-5.04z" fill="#EA1D25"/><path fill-rule="evenodd" clip-rule="evenodd" d="M24.748 13.432v.205h-.036v-.205h-.084v-.043h.21v.043h-.09zm.407-.043v.248h-.042v-.187l-.066.163H25l-.072-.163v.187h-.041v-.248h.06l.077.176.072-.176h.06z" fill="#F69E1E"/><path d="M25.358 9.667a6.416 6.416 0 01-3.574 5.762 6.3 6.3 0 01-6.695-.723c2.753-2.188 3.23-6.214 1.065-8.996a6.254 6.254 0 00-1.065-1.082 6.3 6.3 0 016.695-.722 6.416 6.416 0 013.574 5.761z" fill="#F69E1E"/></svg>
